X: 8780
T: Cuckoo's Nest
R: polka
M: 2/4
K: Adorian
|:A>B cd|ea ef|gg ga|e/d/c/B/ GB|
A>B cd|ea ef|g/f/e/d/ BG|1 A2 AG:|2 A2 A^g||
|:aa ab|ae ef|gg ga|e/d/c/B/ GB|
A>B cd|ea ef|g/f/e/d/ BG|1 A2 A^g:|2 A2 AG||

